X: 323
T: Zuo Chenggong
%%abc-version 2.0
%%abcx-abcm2ps-target-version 5.9.1 (29 Sep 2008)
%%abc-creator hum2abc beta
%%abcx-conversion-date 2013/10/02 07:52:30
%%abc-edited-by Helmut Schaffrath
%%humdrum-veritas 2142972536
%%humdrum-veritas-data 3266019084
%%continueall 1
%%barnumbers 0
L: 1/8
K: F
A c f d [I:setbarnb 1]| 
c3z | 
Ac2f | 
d c A G | 
F2 | 
[M:2/4]f f d f | 
A GF2 | 
c DF2 | 
f f d3/ c/ | 
c c c D/ F/ | 
[M:1/4]G2 | 
[M:2/4]f f d3/ f/ | 
c cF2 | 
c c/ A/ G/ A/ G/ D/ | 
C4 |]  



